X: 1219
T: The Macroom Lasses
M:C|
L:1/8
R:Reel
B:O'Neill's 1219
N:Collected by F. O'Neill
Z:Transcribed by Trish O'Neil
K:A
AF | EAAc BAaf | ecBd cAFA | EAAc BAaf | ecBcA2 :|
(3efg | agaf eace | dBcA BAfg | agaf eac'a | babc'a2ab |
c'afa eace | dBcA BAFA | EFAB cAaf | ecBcA2 |]


